shared/signs/images/5.15.4.svg

<svg width="80" height="80" viewBox="0 0 80 80" fill="none" xmlns="http://www.w3.org/2000/svg">
<path d="M74 0H6C2.68629 0 0 2.68629 0 6V74C0 77.3137 2.68629 80 6 80H74C77.3137 80 80 77.3137 80 74V6C80 2.68629 77.3137 0 74 0Z" fill="white"/>
<path d="M73.3848 0.614014H6.61377C3.30006 0.614014 0.61377 3.30031 0.61377 6.61401V73.385C0.61377 76.6987 3.30006 79.385 6.61377 79.385H73.3848C76.6985 79.385 79.3848 76.6987 79.3848 73.385V6.61401C79.3848 3.30031 76.6985 0.614014 73.3848 0.614014Z" stroke="black"/>
<path d="M5.80301 3.00001C5.43469 2.99922 5.06984 3.07118 4.72941 3.21176C4.38898 3.35235 4.07966 3.55878 3.81922 3.81922C3.55878 4.07966 3.35235 4.38898 3.21176 4.72941C3.07118 5.06984 2.99922 5.43469 3.00001 5.80301V74.197C2.99922 74.5653 3.07118 74.9302 3.21176 75.2706C3.35235 75.611 3.55878 75.9204 3.81922 76.1808C4.07966 76.4412 4.38898 76.6477 4.72941 76.7883C5.06984 76.9288 5.43469 77.0008 5.80301 77H50.466V76.625C50.466 74.5433 49.639 72.5469 48.167 71.075L26.665 49.575C23.4763 46.3859 21.6849 42.0608 21.685 37.551V26.92H15.148L25.61 8.60501L36.076 26.92H29.534V37.55C29.5346 39.9792 30.5 42.3086 32.218 44.026L50.466 62.274V26.92H43.924L54.39 8.60601L64.852 26.92H58.314V77H74.197C74.5653 77.0008 74.9302 76.9288 75.2706 76.7883C75.611 76.6477 75.9204 76.4412 76.1808 76.1808C76.4412 75.9204 76.6477 75.611 76.7883 75.2706C76.9288 74.9302 77.0008 74.5653 77 74.197V5.80301C77.0008 5.43469 76.9288 5.06984 76.7883 4.72941C76.6477 4.38898 76.4412 4.07966 76.1808 3.81922C75.9204 3.55878 75.611 3.35235 75.2706 3.21176C74.9302 3.07118 74.5653 2.99922 74.197 3.00001H41.307V11.223H38.693V3.00001H5.80301ZM38.693 13.837H41.307V21.686H38.693V13.837ZM38.693 24.303H41.307V32.152H38.693V24.303Z" fill="#0D69E1"/>
</svg>

<svg width="197" height="102" xmlns="http://www.w3.org/2000/svg"><g fill="none" fill-rule="evenodd"><g transform="translate(14 12)"><rect fill="#FFF" fill-rule="nonzero" width="80" height="80" rx="6"/><rect stroke="#000" x=".614" y=".614" width="78.771" height="78.771" rx="6"/><path d="M5.803 3A2.797 2.797 0 0 0 3 5.803v68.394A2.797 2.797 0 0 0 5.803 77h44.663v-.375a7.849 7.849 0 0 0-2.299-5.55l-21.502-21.5a17.005 17.005 0 0 1-4.98-12.024V26.92h-6.537L25.61 8.605 36.076 26.92h-6.542v10.63a9.16 9.16 0 0 0 2.684 6.476l18.248 18.248V26.92h-6.542L54.39 8.606 64.852 26.92h-6.538V77h15.883A2.797 2.797 0 0 0 77 74.197V5.803A2.797 2.797 0 0 0 74.197 3h-32.89v8.223h-2.614V3H5.803zm32.89 10.837h2.614v7.849h-2.614v-7.849zm0 10.466h2.614v7.849h-2.614v-7.849z" fill="#0D69E1" fill-rule="nonzero"/></g><g transform="translate(104 11)"><rect fill="#FFF" fill-rule="nonzero" width="80" height="80" rx="6"/><rect stroke="#000" x=".614" y=".614" width="78.771" height="78.771" rx="6"/><path d="M5.803 3A2.797 2.797 0 0 0 3 5.803v68.394A2.797 2.797 0 0 0 5.803 77h44.663v-.371a7.849 7.849 0 0 0-2.299-5.55L30.743 53.65a12.132 12.132 0 0 1-5.133 1.135c-6.719 0-12.165-5.447-12.165-12.165 0-5.345 3.449-9.888 8.24-11.52v-4.177h-6.537L25.61 8.61l10.466 18.314h-6.542V31.1c4.792 1.633 8.241 6.176 8.241 11.52 0 2.022-.491 3.926-1.363 5.603l14.054 14.054V26.924h-6.542L54.39 8.61l10.462 18.314h-6.538V77h15.883A2.797 2.797 0 0 0 77 74.197V5.803A2.797 2.797 0 0 0 74.197 3h-32.89v8.227h-2.614V3H5.803zm32.89 10.84h2.614v7.85h-2.614v-7.85zm0 10.467h2.614v7.848h-2.614v-7.848z" fill="#0D69E1" fill-rule="nonzero"/><path d="M18.77 39.77a.828.828 0 0 0-.687.365l-1.298 1.924a.828.828 0 0 0-.141.463v2.545c0 .457.37.827.827.827h.748a1.738 1.738 0 0 1 3.47 0h6.46c.032-.66.43-1.223.996-1.49H21.94v-3.806a.828.828 0 0 0-.827-.828H18.77zm.044.497h1.885c.228 0 .414.185.414.413v1.16a.414.414 0 0 1-.414.413H18.03a.414.414 0 0 1-.342-.645l.78-1.159a.415.415 0 0 1 .345-.182z" fill="#000" fill-rule="nonzero"/><path d="M23.264 37.287a.826.826 0 0 0-.827.828v5.793h10.758v-5.793a.826.826 0 0 0-.827-.828h-9.104zM29.885 44.57a1.407 1.407 0 1 0 0 2.814 1.407 1.407 0 0 0 0-2.814zm0 .662a.745.745 0 1 1 0 1.49.745.745 0 0 1 0-1.49zM31.62 45.894a1.737 1.737 0 0 0-.995-1.49h2.57v1.49H31.62zM19.954 44.57a1.407 1.407 0 1 0 0 2.814 1.407 1.407 0 0 0 0-2.814zm0 .662a.745.745 0 1 1 0 1.49.745.745 0 0 1 0-1.49z" fill="#000" fill-rule="nonzero"/><path d="M25.333 30.267c-6.848 0-12.4 5.551-12.4 12.4 0 6.848 5.552 12.4 12.4 12.4 6.849 0 12.4-5.552 12.4-12.4 0-6.849-5.551-12.4-12.4-12.4zm0 2.096c5.69 0 10.304 4.613 10.304 10.304 0 5.69-4.613 10.303-10.304 10.303-5.69 0-10.303-4.613-10.303-10.303s4.613-10.304 10.303-10.304z" fill="red" fill-rule="nonzero"/></g></g></svg>
